X:1     %Music
T:Sir William Gower
T:Brown Robyn's Confession
B:Cecil Sharp's Collection of English Folk Songs, Vol 1, p 63, No 13, ed Maud Karpeles , Oxford University Press, 1974
S:Mrs Betsy Prince (76) at Haselbury Plucknett, Somerset, 27 December 1905
Z:Cecil Sharp
F:http://www.folkinfo.org/songs
M:3/4     %Meter
L:1/8     %
K:D
DD |FF G2 EC |DD D3       
w:I'm a gay young sail-or_ stout and strong.     
D/D/ |FE G2 AB | =cB A3
w:To a bow like ves-sel I do be-long,
 D |FA d2 =cA |=cB A3    
w:All carved in an-chor so fine and rare,
D |FF G2 EC | DD D2  |]
w:Our gal-lant sea-men a lord did wear.